packages/icons/src/__generated__/nav/svg/nav-institutionalProduct-12-inactive.svg

<svg xmlns="http://www.w3.org/2000/svg" fill="#1652F0" viewBox="0 0 12 12"><path d="M.989 4.995v-2l5-2 5 2v2h-1.5v4h1.5v2h-10v-2h1.5v-4h-1.5Zm7 4v-4h-1.25v4h1.25Zm-4-4v4h1.25v-4h-1.25Zm-1.77-1.2h7.539l-3.77-1.507L2.22 3.795Z"/></svg>

<svg xmlns="http://www.w3.org/2000/svg" fill="#1652F0" viewBox="0 0 12 12"><path d="M1 5V3l5-2 5 2v2H9.5v4.8H11V11H1V9.8h1.5V5H1Zm7 4.8V5H6.75v4.8H8ZM4 5v4.8h1.25V5H4ZM2.231 3.8H9.77L6 2.292 2.231 3.8Z"/></svg>
